X:1
T:Salve Regina
T:Lassus edited BMarble
T:Salve Regina
T:Copyright © 2014 by CPDL.  This edition can be fully distributed, duplicated, performed, and recorded 
T:Copyright © 2014 by CPDL.  This edition can be fully distributed, duplicated, performed, and recorded 
T:Copyright © 2014 by CPDL.  This edition can be fully distributed, duplicated, performed, and recorded 
T:Copyright © 2014 by CPDL.  This edition can be fully distributed, duplicated, performed, and recorded 
T:Copyright © 2014 by CPDL.  This edition can be fully distributed, duplicated, performed, and recorded 
T:Copyright © 2014 by CPDL.  This edition can be fully distributed, duplicated, performed, and recorded 
T:Copyright © 2014 by CPDL.  This edition can be fully distributed, duplicated, performed, and recorded 
T:Copyright © 2014 by CPDL.  This edition can be fully distributed, duplicated, performed, and recorded 
T:Copyright © 2014 by CPDL.  This edition can be fully distributed, duplicated, performed, and recorded 
T:Copyright © 2014 by CPDL.  This edition can be fully distributed, duplicated, performed, and recorded 
T:Copyright © 2014 by CPDL.  This edition can be fully distributed, duplicated, performed, and recorded 
T:Copyright © 2014 by CPDL.  This edition can be fully distributed, duplicated, performed, and recorded 
T:Copyright © 2014 by CPDL.  This edition can be fully distributed, duplicated, performed, and recorded 
T:Copyright © 2014 by CPDL.  This edition can be fully distributed, duplicated, performed, and recorded 
T:Copyright © 2014 by CPDL.  This edition can be fully distributed, duplicated, performed, and recorded 
T:Copyright © 2014 by CPDL.  This edition can be fully distributed, duplicated, performed, and recorded 
T:Copyright © 2014 by CPDL.  This edition can be fully distributed, duplicated, performed, and recorded 
T:Copyright © 2014 by CPDL.  This edition can be fully distributed, duplicated, performed, and recorded 
T:Copyright © 2014 by CPDL.  This edition can be fully distributed, duplicated, performed, and recorded 
T:Copyright © 2014 by CPDL.  This edition can be fully distributed, duplicated, performed, and recorded 
T:Copyright © 2014 by CPDL.  This edition can be fully distributed, duplicated, performed, and recorded 
C:Lassus
C:edited BMarble
Z:Copyright © 2014 by CPDL.  This edition can be fully distributed, duplicated, performed, and recorded
%%score [ 1 2 3 4 ]
L:1/8
Q:1/2=84
M:4/2
K:D
V:1 treble nm="Soprano" snm="S."
V:2 treble nm="Alto" snm="A."
V:3 treble-8 transpose=-12 nm="Tenor" snm="T."
V:4 bass nm="Bass" snm="B."
V:1
"^Salve Regina misericordiae" (B8 A8 | B16) | E4 E2 F2 G2 A2 B2 G2 | d8 G4 F4- | F4 F4 z4 D2 E2 | %5
w: Sal- *||ve, sal- * * * * *|* ve, sal-|* ve, sal- *|
 F2 E2 D2 F2 E4 D4 | E8 z4 B4- | (B4 A8) G4- | (G2 FE F4) E4 G4- | (G2 F2 E4 D4) F4- | %10
w: |ve Re-|* * gi-|* * * * na, Re-|* * * * gi-|
 F4 E6 ^DC D4 | E16 | z4 D4 E4 G4 | A8 G6 FE | D4 E4 F4 E4- | (E2 F2 G8) F4- | F4 (G8 F2 E2 | %17
w: |na|mi- se- ri-|cor- * * *|* di- ae. mi-|* * * se-|* ri- * *|
 ^D4) E8 D4 | E16 |]"^Vita dulcedo et spes nostra salve" E6 F2 G2 F2 G4 | F4 D8 B,4 | F8 z4 E2 F2 | %22
w: * cor- di-|ae.|Vi- * * * *|ta dul- ce-|do, vi- *|
 G2 F2 G4 F8 | B12 A4- | A4 G4 =c8 | B16 | z16 | B8 G8 | F8 z8 | D8 E8 | G8 A8 | (G6 FE) F4 d4- | %32
w: * * * ta,|vi- ta|* dul- ce-|do,||dul- ce-|do,|et spes|nos- tra|sal- * * ve, sal-|
 (d2 =cB c4) B4 G4- | G4 F4 G4 E4- | (E2 D2) (d6 =cB c4) | (B6 A2 G4) F4- | F2 E2 E8 ^D4 | E16 |] %38
w: * * * * ve, et|* spes nos- tra|* * sal- * * *|ve, * * sal-||ve.|
"^Ad te clamamus, exules filii Evae" z16 | E8 G6 A2 | B2 c2 d6 cB c4 | B8 z4 A4- | A4 A6 GF E2 F2 | %43
w: |Ad * *||te cla-|* ma- * * * *|
 G2 A2 B4 A8 | F8 B8 | (A6 GF E8) | z8 A8 | G8 (F8 | E8) F6 G2 | A2 E2 e6 d2 d2 cB | A4 B8 =c4 | %51
w: * * * mus,|cla- ma-|mus, * * *|e-|xu- les|* fi- *||* li- i,|
 B4 (G6 FE F4) | E4 e4 c4 d4- | d2 c2 B8 A4- | A2 GF G2 A2 B4 A4- | A4 ^G4 G8- | G16 |] %57
w: e- xu- * * *|les fi li- i|* * * E-|* * * * * * vae,|* E- vae.||
"^Ad te suspiramusgementes et flentes,in hac lacrimarum valle." z8 E8 | G6 A2 B8 | E4 e6 d2 d4- | %60
w: Ad||te, ad * *|
 d2 c2 B2 A2 ^G2 A4 G2 | A4 A8 F4 | c8 (B6 c2 | d8) z4 B4 | E4 (e6 dc d4) | G16 | z8 E8 | %67
w: |te su- spi-|ra- mus. _|_ su-|spi- ra- * * *|mus|ge-|
 G8 A4 F4 | D6 E2 F2 G2 A4- | A2 G2 G6 FE F4 | B8 z4 G4 | G4 G4 E2 F2 G2 E2 | F2 G2 A4 (B6 AB | %73
w: men- tes et|flen- * * * *||tes in|hac la- cri- * * *|* * * ma- * *|
 =c4) A4 G2 F2 F2 ED | ^C8 D4 G4- | (G2 F2 G4) E4 F4- | (F2 E2 F2 G2 A4) A4- | A2 D2 d4 =c4 B4 | %78
w: * rum val- * * * *|* le, val-|* * * le, in|* * * * * hac|* * * la- cri-|
 B4 B,4 z4 E4 | (E8 D8) | G8 A8 | B12 A4- | A4 G8 F4- | F4 E8 ^D4 | E16 |] %85
w: ma- rum in|hac *|la- cri-|ma- rum|* val- *||le.|
"^Eia ergo, advocata nostra,illos tuos misericordes oculosad nos converte." (=G8 A8) | (G8 F8) | %87
w: E- *|ia *|
 A8 B8 | z16 | z16 | z8 e8 | B8 (=c8 | B8) E8 | z8 z4 e4- | e4 d4 d4 =c4 | B8 G4 B4 | %96
w: er- go|||ad-|vo- ca-|* ta,|ad-|* vo- ca- ta|nos- tra, ad-|
 F4 (A6 G2 F4) | E4 (A6 GF G4) | F8 z4 A4 | A4 G6 F2 F2 ED | E4 F4 (F8 | B8) z8 | e8 e8 | d8 c8 | %104
w: vo- ca- * *|ta nos- * * *|tra, il-|los tu- * * * *|* * os,||il- los|tu- *|
 d8 e8 | d4 (c8 B4-) | (B4 ^A4) B8- | B8 z8 | z8 e8 | d4 (B6 G2 A4) | D6 E2 F2 G2 A4- | %111
w: |os, tu- *|* * os,||mi-|se- ri- * *|cor- * * * *|
 A2 GF G4 F4 (E2 F2 | G2 A2 B8) A4 | B8 z4 A4 | F4 B6 c2 d4- | (d2 =cB c4) (B2 A2 G2 F2 | %116
w: * * * * des o- *|* * * cu-|los ad|nos con- * *|* * * * ver- * * *|
 E4) F4 z4 D4 | F4 A6 GF G2 A2 | B2 =c2 B4 B8 | B4 (B6 AG A4) | B4 =c4 B8 | ^G16 |] %122
w: * te, ad|nos con- * * * *|* * * ver-|te, ad * * *|nos con- ver-|te.|
"^Et Jesum" z8 G8 | A8 G8 | A6 B2 =c2 B2 B2 AG | F2 E2 F4 E4 e4 | d4 ^c4 z4 e4 | e4 d2 c2 B8 | %128
w: Et|Je- sum,|Je- * * * * * *|* * * sum, et|Je- sum, et|Je- * * *|
 B16- | B16 |]"^Benedictum fructumventris tui nobis posthoc exilium ostende." z16 | z8 B8 | %132
w: sum.|||Be-|
 (B8 c8) | (d6 c2 B2 A2 B4) | e2 d2 c2 B2 A2 G2 F2 E2 | D4 d4 =c2 B2 B2 AG | F8 (B6 ^c2 | %137
w: ne- *|di- * * * *|ctum, * * * * * * *|* be- ne- * * * *|* di- *|
 d4) c4 z8 | (A8 G8 | F8) E8 | (F8 G8) | A8 z8 | (G8 F8 | E8 D8) | E4 B8 A4- | A2 G2 G6 FE F4 | %146
w: * ctum|fru- *|* ctum|ven- *|tris|tu- *||i, tu- *||
 E4 (G6 A2 B4) | E4 F8 G4- | G2 E2 A4 D4 d4- | (d2 cB c4) F8 | (B8 A8 | G8 A8) | B8 z8 | %153
w: i no- * *|bis, no- *|* * * bis, no-|* * * * bis|post *||hoc,|
 z4 B8 A4- | A2 G2 A4 B4 G4 | A6 A2 D4 D4 | G2 A2 B2 c2 d2 cB A2 B2 | =c4 B4 B8 | z4 A8 G4- | %159
w: post hoc|* * * * e-|xi- li- um, e-|xi- * * * * * * * *|* li- um|o- *|
 G2 A2 B8 A4- | (A2 GF G4) A4 A4- | (A2 B2 c2 d2 c4) A4- | (A4 ^G4) G8- | G16 |] %164
w: * * * sten-|* * * * de, o-|* * * * * sten-|* * de.||
"^O clemens" z4 (B6 A2 B2 c2 | d8) c8 | B4 E2 F2 G2 FE D2 E2 | F4 d8 B4- | (B2 AG A4) (F6 G2 | %169
w: O * * *|* cle-|mens, O * * * * * *|* cle- mens,|* * * * O *|
 A4) (B6 ^A^G A4) | B16 |]"^O pia" z4 (B6 A2 B2 c2 | d8) c8 | B4 E2 F2 G2 FE D2 E2 | F4 d8 B4- | %175
w: * cle- * * *|mens.|O * * *|* pi-|a, O * * * * * *|* pi- a,|
 (B2 AG A4) (F6 G2 | A4) (B6 ^A^G A4) | B16 |]"^O  dulcis Virgo Mater Maria" z4 B8 d4- | %179
w: * * * * O *|* pi- * * *|a.|O *|
 d2 cB A2 B2 c2 d2 e4- | e2 dc B4 B8 | d6 cB A2 B2 c2 d2 | e2 dc B2 c2 d4 d4- | (d2 c2 B4) F4 d4- | %184
w: |* * * * dul-|cis * * * * * *|* * * * * * Vir-|* * * go Ma-|
 (d2 c2 B2 A2 G4) A4- | A4 G6 F2 F4- | F2 E2 E4 F4 d4 | B4 (e6 d2 c2 B2 | A4) d8 =c4 | B16 | %190
w: * * * * * ter,|* Ma- * *|* * * ter, Vir-|go Ma- * * *|* ter Ma-|ri-|
 ^G16 |] %191
w: a.|
V:2
 z4 B,2 C2 D2 E2 F2 D2 | G8 D8 | z8 (D6 E2 | F2 G2 F4) E4 D4 | D8 D4 B,2 C2 | D2 E2 F2 D2 G4 F4 | %6
w: Sal- * * * * *|* ve,|sal- *|* * * ve Re-|gi- na, sal- *|* * * * * ve|
 z4 E8 D4- | D2 CB, C2 D2 E4 E4- | E4 D4 =C2 B,2 B,4- | B,2 A,G, A,4 B,4 =C4 | B,16 | %11
w: Re- *|* * * * * * gi-|* na, Re- * *|* * * * * gi-|na|
 z4 B,4 =C4 A,4 | D2 E2 F2 B,2 =C4 B,4 | A,6 B,2 =C2 B,2 B,4- | B,2 A,2 B,2 ^C2 D4 =C4 | %15
w: mi- se- ri-|cor- * * * * di-|ae, * * * *|* * * * * mi-|
 (B,2 A,2 B,2 ^C2 D8) | D8 G,4 A,4 | B,16- | B,16 |] z8 B,6 C2 | D2 B,2 G4 F4 D4- | %21
w: se- * * * *|ri- cor- di-|ae.||Vi- *|* * * ta, vi-|
 D2 C2 D2 E2 F2 G2 A4 | D4 (E6 DC D4) | B,4 E4 D4 C4 | z4 E8 E4- | E2 D2 E2 F2 G4 F4 | %26
w: |ta, vi- * * *|ta dul- ce- do,|vi- ta||
 E4 F6 E2 E4- | E2 ^DC D4 E4 B,4- | B,4 A,4 =C4 B,4 | z4 B,8 A,4 | D4 E4 D2 ^C2 D2 A,2 | %31
w: dul- ce * *|* * * * do, et|* spes nos- tra,|et spes|nos- tra sal- * * *|
 B,2 =C2 B,6 A,2 G,2 F,2 | A,8 D4 B,4 | =C4 D8 G4- | G2 F2 F2 ED A8 | D16 | B,16- | B,16 |] %38
w: |* ve, et|spes nos- tra||sal-|ve.||
 z4 B,8 D4- | D2 CB, C2 D2 E8 | D4 B,4 (E6 F2 | G2 F2 G4) F4 F4 | (E6 D2 C2 B,2 C4) | %43
w: Ad *||te cla- ma- *|* * * mus, cla-|ma- * * * *|
 D4 G4 E4 F4- | F4 B,4 D4 E4 | F6 ED C2 B,2 C4 | B,8 z8 | z4 E8 D4 | (C8 B,8) | (E8 F8) | F8 E8 | %51
w: mus, ad te cla-|* ma- mus, cla-|ma- * * * * *|mus,|e- xu-|les *|fi- *|li- i|
 E8 A,4 A4- | A4 G4 F8 | (B,6 C2 D4) C4 | E8 F8 | E16- | E16 |] E8 =G6 F2 | E2 B,2 E6 D2 D4- | %59
w: E- vae, e-|* xu- les|fi- * * li-|i E-|vae.||Ad * *||
 D2 CB, C4 F8- | F8 z4 E4 | C4 F6 =G2 A4- | A2 GF E2 F2 G2 F2 G4- | G2 FE F4 B,8 | %64
w: * * * * te|* su-|spi- ra- * *||* * * * mus|
 z4 E,2 F,2 G,2 F,2 F4 | B,4 E4 (D2 C2 B,2 A,2 | B,4) B,4 =C8- | C4 B,4 z4 A,4 | %68
w: su- * * * *|spi- ra- mus * * *|* ge- men-|* tes et|
 (B,2 ^C2 D2 B,2 D4) C4 | z8 z4 D4 | D4 D4 (B,2 C2 D2 B,2 | =C4) B,4 (G,2 A,2 B,2 G,2 | %72
w: flen- * * * * tes|in|hac la- cri- * * *|* ma- rum * * *|
 A,4) F,4 E,4 E4 | (E8 D8) | E4 F4 G2 F2 E2 D2 | E2 F2 E4 C4 D4 | A,16 | z4 A8 G4 | %78
w: * val- le, in|hac *|la- cri- ma- * * *|* * * rum val-|le,|in hac|
 G4 F4 (E2 D2 =C2 B,2 | A,4) G,4 z4 B,4 | (B,8 A,8) | D4 E4 F8- | F4 E4 (D6 C2 | B,16) | ^G,16 |] %85
w: la- cri- ma- * * *|* rum in|hac *|la- cri- ma-|* rum val- *||le.|
 z8 (D8 | E8) (D6 CB, | C4) (D8 G4-) | G4 F4 z4 B,4- | B,2 A,2 D4 E4 F4- | F2 D2 G6 F2 E4- | %91
w: E-|* ia * *|* er- *|* go, e-|* * * ia er-||
 E2 D2 E4 A,8 | z8 G8- | G4 D4 (E6 F2 | G4) F8 E4- | (E2 ^DC D4) E2 =DC B,2 C2 | D4 C4 D4 C4- | %97
w: * * * go|ad-|* vo- ca- *|* ta nos-|* * * * tra, * * * *|* ad- vo- ca-|
 C2 B,2 C2 D2 E2 B,2 E4- | E4 D8 C2 B,2 | C4 B,4 B,8 | A,4 A8 A4 | G8 F4 A4- | A4 G4 (E6 F2 | %103
w: ||* ta nos-|tra, il- los|tu- os, il-|* los tu- *|
 G4) F4 z4 F4- | F4 G8 E4 | F4 A8 F4 | (F8 G8) | F4 F4 B,4 D4 | =C2 B,2 D4 E6 F2 | G2 FE D4 z8 | %110
w: * os, il-|* los tu-|os, il- los|tu- *|os, mi- se- ri-|cor- * * des *||
 z4 D4 D4 C4 | F4 E2 D2 C2 B,2 C2 D2 | E2 DC B,2 C2 D2 CB, C4 | B,4 D8 C4 | B,4 F,4 G,4 F,4 | %115
w: mi- se- ri-|cor- * * * * * *||des o- cu-|los ad nos con-|
 A,8 E,4 B,4 | C4 D4 (B,6 C2 | D4) C4 z4 E4 | G6 FE D4 E4- | E2 ^DC D4 E8 | ^D4 (E6 DC D4) | E16 |] %122
w: ver- te, ad|nos con- ver- *|* te, con|ver- * * * *|* * * * te,|con- ver- * * *|te.|
 =D8 (E8 | D8 E8 | F8) E4 B,4 | D8 B,8 | F4 A6 ^GF G4 | A2 E2 F6 E2 E4- | E4 ^D4 D8- | D16 |] %130
w: Et Je-||* sum, et|Je- sum,|et Je- * * *|sum, * * * *|* Je- sum.||
 E8 (E8 | F8) (G6 F2 | E2 D2 E4) A2 G2 F2 E2 | D2 C2 B,2 A,2 G,4 G4- | G2 F2 E2 D2 C4 D4 | %135
w: Be- ne-|* di- *|* * * ctum, * * *|* * * * * be-|* * * * * ne-|
 (B,6 A,2 G,8) | A,4 A8 G4 | F8 E6 B,2 | D4 C4 z4 E4 | D4 C6 A,2 B,2 C2 | D2 C2 D4 B,4 E4- | %141
w: di- * *|ctum fru- ctum|ven- * *|* tris, fru-|ctum ven- * * *|* * * tris, fru-|
 E4 D4 C4 (D2 C2 | B,2 A,2 G,4) z8 | z16 | (G8 F8 | E8 D8) | E8 z8 | z8 D8 | E6 F2 G2 F2 F2 ED | %149
w: * ctum ven- tris, *|||tu- *||i|no-||
 F2 E2 E6 DC D4 | (G,2 A,2 B,2 C2 D4) F4- | F2 ED E2 B,2 D2 C2 D4 | G,4 (G6 FE F4) | %153
w: |bis, * * * * no-||bis, no- * * *|
 B,4 G,4 D4 C4 | D2 E2 F2 D2 G2 F2 E2 D2 | C4 D4 B,8 | z8 F8 | (E6 F2 G4) E4 | A,4 ^C8 B,4- | %159
w: bis post hoc e-|xi- * * * * * * *|* li- um,|o-|sten- * * de,|o- sten- *|
 B,2 C2 D8 C4- | (C2 B,A, B,4) (A,2 B,2 C2 D2 | C4) A,6 B,2 C2 D2 | C4 B,4 B,8- | B,16 |] %164
w: * * * de,|* * * * o- * * *|* sten- * * *|* * de.||
 (E6 D2 E2 F2 G4-) | G4 F8 E4 | G6 F2 E2 DC B,2 C2 | D2 C2 F4 (D4 E4) | F8 z4 B,4 | F16 | ^D16 |] %171
w: O * * * *|* cle- mens,|O * * * * * *|* * * cle- *|mens, o|cle-|mens,|
 (E6 D2 E2 F2 G4-) | G4 F8 E4 | G6 F2 E2 DC B,2 C2 | D2 C2 F4 (D4 E4) | F8 z4 B,4 | F16 | ^D16 |] %178
w: O * * * *|* pi- a,|O * * * * * *|* * * pi- *|a, o|pi-|a.|
 E8 G6 FE | D2 E2 F2 G2 A8 | G6 FE D6 E2 | F2 G2 F6 ED E4- | E2 F2 G4 F8 | B,4 D6 E2 F4 | %184
w: O * * *||dul- * * * *||* * * cis|Vir- go * *|
 D4 D4 E4 F4 | E8 C4 D4 | (B,6 C2 D2 E2 F4) | E4 B,4 E4 A4- | (A2 G2 F2 E2 D4) E4 | %189
w: * Ma- ter Ma-|ri- a, Ma-|ri- * * * *|a, Vir- go Ma-|* * * * * ter|
 D4 (E6 ^DC D4) | E16 |] %191
w: Ma- ri- * * *|a.|
V:3
 z16 | z4 E2 F2 G2 A2 B2 G2 | =c8 G8 | z8 (B8 | A8 B8-) | B8 E4 B4 | =c8 B8 | z8 (B8 | A8) G6 F2 | %9
w: |Sal- * * * * *|* ve,|sal-||* ve, Re-|gi- na.|Re-|* gi- *|
 E6 F2 G4 A4 | G8 F8 | E8 z8 | z16 | (D8 E8) | G8 A8 | G8 A8 | B8 E8 | F4 G4 F8 | E16 |] z16 | %20
w: ||na||mi- *|se- ri-|cor- *||* * di-|ae.||
 (B16 | A16 | B16) | E8 z8 | B8 A8 | G6 F2 E4 F4 | G4 A6 G2 F2 E2 | F8 E8 | z8 G8 | B4 d8 =c4 | %30
w: Vi-|||ta|dul- *||* ce- * * *|* do,|et|spes nos- tra|
 B8 A8 | z8 D8 | E8 G8 | A8 G6 A2 | B8 (E6 F2 | G4) F4 B6 A2 | G4 F2 E2 F8 | E16 |] (E8 G8 | %39
w: sal- ve,|et|spes nos-|tra * *|* sal- *|* ve, sal- *||ve.|Ad *|
 A8) B8 | z16 | d8 d8 | c6 d2 e6 dc | B2 c2 d2 e2 c8 | d4 d4 (B6 c2 | d4) c4 z4 e4- | %46
w: * te,||ad te|cla- * * * *|* * * * ma-|mus, cla- ma- *|* mus, e-|
 e4 d6 c2 c2 BA | B8 A8 | z4 e8 d4 | c8 B6 c2 | d8 G6 G2 | G2 A2 B2 c2 d6 c2 | B8 A8 | (d6 e2 f8) | %54
w: * xu- * * * *|* les,|e- xu-|les * *|* fi- li-|i * * * * *|* E-|vae, * *|
 (B6 c2 d8) | B16- | B16 |] z16 | (E8 G8 | A8) B8- | B16 | z8 d8 | A8 B8 | A8 G8 | A8 B8 | %65
w: E- * *|vae.|||Ad *|* te||su-|spi- ra-||* mus|
 z4 B8 d4- | d4 e4 z4 A4 | e8 ^c4 d4- | (d2 c2 B4) A6 B2 | =c2 B2 B2 AG A8 | G16 | z16 | z16 | %73
w: ge- men-|* tes et|flen- tes, et|* * * flen- *||tes|||
 z16 | z8 B8 | (B8 A8) | d8 e8 | f8 e8 | d6 c2 B2 A2 G2 F2 | E6 F2 G2 F2 f4 | e4 e4 ^c4 d4- | %81
w: |in|hac *|la- cri-|ma- rum|val- * * * * *||le, in hac la-|
 (d4 c2 B2 d4) c4 | B8 B8 | (G8 F8) | E16 |] z16 | z16 | z8 (G8 | A8) (G8 | F8) A8 | B8 z8 | %91
w: * * * * cri-|ma- rum|val- *|le.|||E-|* ia|* er-|go|
 z8 z4 e4- | e4 B4 (=c8 | B8) (A8 | B8) (A6 G2 | F8) E8 | (A8 F8 | A8) B8 | z8 e8 | e8 d8 | c8 d8 | %101
w: ad-|* vo- ca-|* ta|* nos- *|* tra,|nos- *|* tra,|il-|los tu-||
 e8 d4 c4- | (c4 B8 A4) | (B8 F8) | z4 B4 B4 A4- | A4 e6 f2 d4 | c8 z4 e4- | e4 d8 B4 | G12 A4 | %109
w: * os. tu-||os, *|il- los tu-||os, mi-|* se- ri-|cor- des,|
 (B8 =c8) | (B8 A8 | B8) A8 | E8 F8 | (G6 F2 E4) E4 | D8 D8 | E8 G8 | (A8 G8 | A8 B8) | %118
w: mi- *|se- *|* ri-|cor- des|o- * * cu-|los ad|nos con-|ver- *||
 (E6 F2 G8) | F8 E8 | F8 F8 | E16 |] z16 | z16 | z8 G8 | A8 G8 | A8 B8 | A8 G8 | F16- | F16 |] %130
w: te, * *|ad nos|con- ver-|te.|||Et|Je- *|||sum.||
 z16 | z16 | z16 | z16 | z16 | z16 | z16 | z16 | z16 | z16 | z16 | z16 | z16 | z16 | z16 | z16 | %146
w: ||||||||||||||||
 z16 | z16 | z16 | z16 | z16 | z16 | z16 | z16 | z16 | z16 | z16 | z16 | z16 | z16 | z16 | z16 | %162
w: ||||||||||||||||
 z16 | z16 |] z16 | z16 | z8 B8 | A8 B8 | c8 d8- | d8 c8 | B16 |] z16 | z16 | z8 B8 | A8 B8 | %175
w: ||||O|||* cle-|mens.|||O||
 c8 d8- | d8 c8 | B16 |] z16 | z16 | E8 G6 FE | D2 E2 F2 G2 A8 | z8 (A8 | G8) A8 | B16 | B8 A8 | %186
w: |* pi-|a.|||O * * *||dul-|* cis|Vir-|go Ma-|
 G8 F8 | G8 A8 | F8 G8- | G8 F8 | E16 |] %191
w: ||ter Ma-|* ri-|a.|
V:4
 z16 | z8 (B,8 | A,8 B,8-) | B,8 E,4 B,,2 C,2 | D,2 E,2 F,2 D,2 G,6 F,E, | D,4 B,,4 (B,8 | %6
w: |Sal-||* ve, sal- *||* ve Re-|
 A,8) (G,8 | F,8) (E,6 D,2 | C,4) D,4 E,6 D,2 | =C,8 B,,4 A,,4 | B,,16 | z4 G,4 A,4 =C4 | %12
w: * gi-|* na. *|* Re- gi- *||na|mi- se- ri-|
 B,8 A,4 G,4- | (G,2 F,E, F,4) z4 G,4- | (G,2 F,2 E,4) D,4 A,,4 | E,8 D,6 C,2 | B,,8 =C,8 | B,,16 | %18
w: cor- di- ae|* * * * mi-|* * * se- ri-|cor- * *||di-|
 E,16 |] z16 | B,,6 ^C,2 D,2 B,,2 G,4 | F,4 D,8 C,4 | B,,8 z8 | (G,8 F,8) | E,8 A,,8 | %25
w: ae.||Vi- * * * *|ta dul- ce-|do,|dul- *|ce- do,|
 z4 (E,8 D,4) | =C,4 A,,4 C,8 | B,,8 z8 | D,8 E,8 | G,12 A,4 | G,8 F,8 | E,6 D,C, B,,8 | %32
w: vi- *|ta dul- ce-|do,|et spes|nos- tra|sal- *||
 A,,8 z4 E,4- | E,4 D,4 B,,4 =C,4 | B,,8 A,,8 | B,,16- | B,,16 | E,16 |] z16 | z8 (E,8 | G,8 A,8) | %41
w: ve, et|* spes nos- tra|sal- ve,|sal-||ve.||Ad||
 B,8 z8 | A,8 A,8 | (G,8 A,8 | B,8) G,8 | F,8 A,8 | (G,8 F,8 | E,8) (F,6 G,2 | A,8) z8 | z16 | %50
w: te,|ad te|cla- *|* ma-|mus, e-|xu- *|* les, *|||
 (D,8 E,8) | (E,8 D,8) | (E,8 F,8) | (G,8 F,8 | E,8 D,8) | E,16- | E,16 |] z16 | z16 | z8 (B,,8 | %60
w: fi- *|li- *|i *|E- *||vae.||||Ad|
 D,8 E,8) | F,8 z8 | z8 D8 | D,8 (E,6 D,2 | =C,8) B,,8 | E,8 G,8- | G,8 A,8 | E,8 (F,8 | G,8 F,8 | %69
w: |te|su-|spi- ra- *|* mus|ge- men-|* tes|et flen-||
 E,8) D,8 | z16 | E,8 (E,8 | D,8) G,8 | A,8 B,8 | A,8 (G,6 F,2 | E,2 D,2 E,4) A,,4 D,4 | %76
w: * tes||in hac|* la-|cri- ma-|rum val- *|* * * le, in|
 (D,8 C,8) | D,6 D,2 A,4 E,4 | B,6 A,2 G,2 F,2 E,2 D,2 | =C,8 B,,8 | (E,8 F,8) | G,8 (F,6 E,2 | %82
w: hac *|la- cri- ma- rum|val- * * * * *|* le,|la- *|cri- ma- *|
 D,4) E,4 B,,8- | B,,16 | E,16 |] z16 | z16 | z16 | (D,8 E,8) | (D,6 C,B,, C,4) D,4- | %90
w: * rum val-||le.||||E- *|ia * * * er-|
 (D,2 B,,2 E,4) =C,8 | z16 | z8 z4 E,4- | E,4 B,,4 =C,8 | (B,,6 ^C,2 D,4) A,,4 | B,,8 z4 G,4 | %96
w: * * * go||ad-|* vo- ca-|ta * * nos-|tra, ad-|
 D,4 F,6 G,2 A,4- | A,2 G,2 F,4 E,8 | B,8 A,8- | A,4 E,4 z8 | z4 F,8 F,4 | %101
w: vo- ca- * *|* * * ta|* nos-|* tra,|il- los|
 E,2 F,2 G,2 A,2 B,2 B,,2 F,4 | E,6 D,2 C,8 | B,,4 B,6 ^A,^G, A,4 | B,2 A,2 G,2 F,2 E,2 D,2 C,4 | %105
w: tu- * * * * * *||os, il- * * *|los * * * * * *|
 D,4 A,,4 A,4 B,4 | F,8 E,8 | B,8 (G,6 F,2 | E,4) B,,4 =C,8 | B,,4 G,4 E,4 F,4 | G,8 D,4 F,4 | %111
w: tu- os, il- los|tu- os,|mi- se- *|* ri- cor-|des, mi- se- ri-|cor- des, mi-|
 D,4 E,4 F,2 G,2 A,2 F,2 | B,4 G,4 z8 | G,,8 A,,8 | B,,6 A,,2 G,,4 B,,4 | A,,8 z8 | %116
w: se- ri- cor- * * *|* des|o- *|* * * cu-|los|
 z4 D,4 E,4 G,4 | F,8 E,8 | z16 | (B,,8 =C,8) | B,,4 A,,4 B,,8 | E,16 |] z16 | z16 | D,8 (E,8 | %125
w: ad nos con-|ver- te,||ad *|nos con- ver-|te.|||Et Je-|
 D,8 E,8 | F,8) (E,6 D,2 | C,4) D,4 E,8 | B,,16- | B,,16 |] z16 | z16 | z16 | z8 E,8 | (E,8 F,8) | %135
w: |* sum, *|* et Je-|sum.|||||Be-|ne- *|
 (G,6 F,2 E,8) | D,8 z8 | z4 A,8 G,4 | F,8 E,8 | z4 A,8 G,4 | (F,6 E,D, E,8) | %141
w: di- * *|ctum|fru- ctum|ven- tris,|fru- ctum|ven- * * *|
 F,6 G,2 A,2 F,2 B,4 | E,4 B,8 A,4- | A,2 G,2 G,6 F,E, F,4 | (E,8 D,8 | =C,8 B,,8) | z8 G,8 | %147
w: tris * * * *|* tu- *||i *||no-|
 A,8 B,8 | =C8 B,8 | A,8 B,8 | z16 | z8 (F,8 | E,8 D,8 | E,8) F,8 | z8 (E,8 | F,8) (G,6 F,2 | %156
w: ||* bis||post||* hoc|e-|* xi- *|
 E,4) E,4 D,8 | z16 | F,8 E,6 F,2 | G,8 F,8 | E,8 F,8 | F,16 | E,16- | E,16 |] z16 | z16 | %166
w: * li- um||o- * *|||sten-|de.||||
 (E,6 D,2 E,2 F,2 G,4) | F,4 D,4 (G,8 | F,8) (B,6 A,G, | F,16) | B,,16 |] z16 | z16 | %173
w: O * * * *|cle- mens, O|* cle- * *||mens.|||
 (E,6 D,2 E,2 F,2 G,4) | F,4 D,4 (G,8 | F,8) (B,6 A,G, | F,16) | B,,16 |] z16 | z16 | z8 z4 B,,4- | %181
w: O * * * *|pi- a, O|* pi- * *||a.|||O|
 B,,4 D,6 C,B,, A,,2 B,,2 | C,2 D,2 E,4 (D,8 | G,,8) D,8 | (G,6 F,2 E,4) D,4 | E,8 F,4 D,4 | %186
w: |* * * dul-|* cis|Vir- * * go|Ma- ter Ma-|
 E,8 B,,8 | (E,6 D,2 C,2 B,,2 A,,4) | (D,6 C,2 B,,4) =C,4 | (G,,6 A,,2 B,,8) | E,16 |] %191
w: ri- a,|Ma- * * * *|ter * * Ma-|ri- * *|a.|

